_site/images/homepage/secure.svg

<svg fill="none" height="30" viewBox="0 0 30 30" width="30" xmlns="http://www.w3.org/2000/svg"><rect fill="#ffc634" height="30" rx="7" width="30"/><path clip-rule="evenodd" d="m8.49999 21.4998h12.74991c.4142 0 .75.3357.75.75 0 .4142-.3358.7499-.75.7499h-13.49991c-.41421 0-.74999-.3357-.74999-.7499v-13.49982c0-.4142.33578-.74998.74999-.74998s.75.33578.75.74998zm3.75021-4.1247c0 .6214-.5037 1.125-1.125 1.125s-1.125-.5036-1.125-1.125c0-.6213.5037-1.1249 1.125-1.1249l2.25-2.25c0-.6213.5036-1.125 1.1249-1.125.6214 0 1.125.5037 1.125 1.125l1.2975 1.32h.12l2.7075-2.7075c-.0037-.0374-.0037-.0751 0-.1125 0-.6213.5037-1.125 1.125-1.125s1.125.5037 1.125 1.125-.5037 1.125-1.125 1.125l-2.73 2.7525v.06c0 .6213-.5037 1.1249-1.125 1.1249s-1.125-.5036-1.125-1.1249v-.06l-1.2075-1.2075h-.1725-.1725l-2.0924 2.0924c.0036.0375.0036.0751 0 .1125z" fill="#fff" fill-rule="evenodd"/></svg>

<svg width="30" height="30" viewBox="0 0 30 30" fill="none" xmlns="http://www.w3.org/2000/svg">
<rect width="30" height="30" rx="7" fill="#FFC634"/>
<path fill-rule="evenodd" clip-rule="evenodd" d="M8.49999 21.4998H21.2499C21.6641 21.4998 21.9999 21.8355 21.9999 22.2498C21.9999 22.664 21.6641 22.9997 21.2499 22.9997H7.74999C7.33578 22.9997 7 22.664 7 22.2498V8.74998C7 8.33578 7.33578 8 7.74999 8C8.1642 8 8.49999 8.33578 8.49999 8.74998V21.4998ZM12.2502 17.3751C12.2502 17.9965 11.7465 18.5001 11.1252 18.5001C10.5039 18.5001 10.0002 17.9965 10.0002 17.3751C10.0002 16.7538 10.5039 16.2502 11.1252 16.2502L13.3752 14.0002C13.3752 13.3789 13.8788 12.8752 14.5001 12.8752C15.1215 12.8752 15.6251 13.3789 15.6251 14.0002L16.9226 15.3202H17.0426L19.7501 12.6127C19.7464 12.5753 19.7464 12.5376 19.7501 12.5002C19.7501 11.8789 20.2538 11.3752 20.8751 11.3752C21.4964 11.3752 22.0001 11.8789 22.0001 12.5002C22.0001 13.1215 21.4964 13.6252 20.8751 13.6252L18.1451 16.3777V16.4377C18.1451 17.059 17.6414 17.5626 17.0201 17.5626C16.3988 17.5626 15.8951 17.059 15.8951 16.4377V16.3777L14.6876 15.1702H14.5151H14.3426L12.2502 17.2626C12.2538 17.3001 12.2538 17.3377 12.2502 17.3751Z" fill="white"/>
</svg>
